Numix-GalliumOS/16/status/gpm-phone-000.svg

<?xml version="1.0" encoding="UTF-8" standalone="no"?>
<svg
   xmlns:dc="http://purl.org/dc/elements/1.1/"
   xmlns:cc="http://creativecommons.org/ns#"
   xmlns:rdf="http://www.w3.org/1999/02/22-rdf-syntax-ns#"
   xmlns:svg="http://www.w3.org/2000/svg"
   xmlns="http://www.w3.org/2000/svg"
   xmlns:sodipodi="http://sodipodi.sourceforge.net/DTD/sodipodi-0.dtd"
   xmlns:inkscape="http://www.inkscape.org/namespaces/inkscape"
   width="16"
   height="16"
   viewBox="0 0 16 16"
   id="svg2"
   version="1.1"
   inkscape:version="0.91 r"
   sodipodi:docname="gpm-phone-000.svg"
   inkscape:export-filename="/home/andreas/phone.png"
   inkscape:export-xdpi="270"
   inkscape:export-ydpi="270">
  <metadata
     id="metadata10">
    <rdf:RDF>
      <cc:Work
         rdf:about="">
        <dc:format>image/svg+xml</dc:format>
        <dc:type
           rdf:resource="http://purl.org/dc/dcmitype/StillImage" />
        <dc:title></dc:title>
      </cc:Work>
    </rdf:RDF>
  </metadata>
  <defs
     id="defs8">
    <filter
       height="16"
       width="16"
       y="0"
       x="0"
       filterUnits="objectBoundingBox"
       id="0">
      <feColorMatrix
         id="feColorMatrix7"
         values="0 0 0 0 1 0 0 0 0 1 0 0 0 0 1 0 0 0 1 0"
         in="SourceGraphic"
         type="matrix" />
    </filter>
    <mask
       id="1">
      <g
         style="filter:url(#0)"
         id="g10">
        <rect
           style="fill-opacity:0.30199998"
           y="0"
           x="0"
           id="rect12"
           height="16"
           width="16" />
      </g>
    </mask>
    <clipPath
       id="2">
      <rect
         y="0"
         x="0"
         id="rect15"
         height="16"
         width="16" />
    </clipPath>
    <g
       clip-path="url(#2)"
       id="3">
      <path
         style="fill:none;stroke:#de372c;stroke-width:2;stroke-linecap:round"
         inkscape:connector-curvature="0"
         id="path18"
         transform="matrix(0.727273,0,0,0.727273,-1.090909,-0.727273)"
         d="m 12.5,5.334473 0,3.330078" />
      <path
         style="fill:none;stroke:#de372c;stroke-width:0.5;stroke-linecap:round"
         inkscape:connector-curvature="0"
         id="path20"
         transform="matrix(0,-0.727273,0.727273,0,-1.090909,-0.727273)"
         d="m -16.452637,8.251465 8.905274,0 c 1.267578,0 2.298828,1.477051 2.298828,3.297851 l 0,1.901368 c 0,1.8208 -1.03125,3.297851 -2.298828,3.297851 l -8.905274,0 c -1.267578,0 -2.298828,-1.477051 -2.298828,-3.297851 l 0,-1.901368 c 0,-1.8208 1.03125,-3.297851 2.298828,-3.297851 z" />
    </g>
    <filter
       id="0-8"
       filterUnits="objectBoundingBox"
       x="0"
       y="0"
       width="16"
       height="16">
      <feColorMatrix
         type="matrix"
         in="SourceGraphic"
         values="0 0 0 0 1 0 0 0 0 1 0 0 0 0 1 0 0 0 1 0"
         id="feColorMatrix7-9" />
    </filter>
    <mask
       id="1-7">
      <g
         id="g10-2"
         style="filter:url(#0-8)">
        <rect
           width="16"
           height="16"
           id="rect12-0"
           x="0"
           y="0"
           style="fill-opacity:0.30199998" />
      </g>
    </mask>
    <clipPath
       id="2-2">
      <rect
         width="16"
         height="16"
         id="rect15-7"
         x="0"
         y="0" />
    </clipPath>
    <g
       id="3-4"
       clip-path="url(#2-2)">
      <path
         d="m 12.5,5.334473 0,3.330078"
         transform="matrix(0.727273,0,0,0.727273,-1.090909,-0.727273)"
         id="path18-7"
         inkscape:connector-curvature="0"
         style="fill:none;stroke:#de372c;stroke-width:2;stroke-linecap:round" />
      <path
         d="m -16.452637,8.251465 8.905274,0 c 1.267578,0 2.298828,1.477051 2.298828,3.297851 l 0,1.901368 c 0,1.8208 -1.03125,3.297851 -2.298828,3.297851 l -8.905274,0 c -1.267578,0 -2.298828,-1.477051 -2.298828,-3.297851 l 0,-1.901368 c 0,-1.8208 1.03125,-3.297851 2.298828,-3.297851 z"
         transform="matrix(0,-0.727273,0.727273,0,-1.090909,-0.727273)"
         id="path20-9"
         inkscape:connector-curvature="0"
         style="fill:none;stroke:#de372c;stroke-width:0.5;stroke-linecap:round" />
    </g>
  </defs>
  <sodipodi:namedview
     pagecolor="#ffffff"
     bordercolor="#666666"
     borderopacity="1"
     objecttolerance="10"
     gridtolerance="10"
     guidetolerance="10"
     inkscape:pageopacity="0"
     inkscape:pageshadow="2"
     inkscape:window-width="1920"
     inkscape:window-height="1056"
     id="namedview6"
     showgrid="true"
     inkscape:zoom="45.254834"
     inkscape:cx="8.0302873"
     inkscape:cy="9.3946048"
     inkscape:window-x="0"
     inkscape:window-y="24"
     inkscape:window-maximized="1"
     inkscape:current-layer="svg2">
    <inkscape:grid
       type="xygrid"
       id="grid4138" />
  </sodipodi:namedview>
  <rect
     style="opacity:1;fill:#ef555c;fill-opacity:1;fill-rule:nonzero;stroke:none;stroke-width:2;stroke-linecap:butt;stroke-linejoin:miter;stroke-miterlimit:4;stroke-dasharray:none;stroke-dashoffset:0;stroke-opacity:1"
     id="rect4135"
     width="6"
     height="10"
     x="5"
     y="3" />
  <path
     style="fill:#ececec;fill-opacity:1"
     d="M 4.4589844 0 C 3.6614586 0 3 0.56178992 3 1.2578125 L 3 14.726562 C 3 15.419746 3.6614586 16 4.4589844 16 L 11.541016 16 C 12.338544 16 13 15.419745 13 14.726562 L 13 1.2578125 C 13 0.56178992 12.338544 0 11.541016 0 L 4.4589844 0 z M 7 0.625 L 9 0.625 C 9.277 0.625 9.5 0.79225 9.5 1 C 9.5 1.20775 9.277 1.375 9 1.375 L 7 1.375 C 6.723 1.375 6.5 1.20775 6.5 1 C 6.5 0.79225 6.723 0.625 7 0.625 z M 4 2 L 12 2 L 12 14 L 4 14 L 4 2 z M 8 14.5 C 8.2761424 14.5 8.5 14.723858 8.5 15 C 8.5 15.276142 8.2761424 15.5 8 15.5 C 7.7238576 15.5 7.5 15.276142 7.5 15 C 7.5 14.723858 7.7238576 14.5 8 14.5 z "
     id="path4" />
</svg>

<svg xmlns="http://www.w3.org/2000/svg" viewBox="0 0 16 16">
 <rect width="6" height="10" x="5" y="3" style="fill:#ef555c;opacity:1;fill-opacity:1;stroke:none;fill-rule:nonzero"/>
 <path d="m 4.459 0 c -0.798 0 -1.459 0.562 -1.459 1.258 l 0 13.469 c 0 0.693 0.661 1.273 1.459 1.273 l 7.082 0 c 0.798 0 1.459 -0.58 1.459 -1.273 l 0 -13.469 c 0 -0.696 -0.661 -1.258 -1.459 -1.258 l -7.082 0 z m 2.541 0.625 l 2 0 c 0.277 0 0.5 0.167 0.5 0.375 c 0 0.208 -0.223 0.375 -0.5 0.375 l -2 0 c -0.277 0 -0.5 -0.167 -0.5 -0.375 c 0 -0.208 0.223 -0.375 0.5 -0.375 z m -3 1.375 l 8 0 l 0 12 l -8 0 l 0 -12 z m 4 12.5 c 0.276 0 0.5 0.224 0.5 0.5 c 0 0.276 -0.224 0.5 -0.5 0.5 c -0.276 0 -0.5 -0.224 -0.5 -0.5 c 0 -0.276 0.224 -0.5 0.5 -0.5 z" style="fill:#ececec;fill-opacity:1"/>
</svg>
